Icons-Moksha-RedPassion/apps/scalable/system-file-manager-linux-mint-color-earth.svg

<?xml version="1.0" encoding="UTF-8" standalone="no"?>
<svg
   xmlns:dc="http://purl.org/dc/elements/1.1/"
   xmlns:cc="http://creativecommons.org/ns#"
   xmlns:rdf="http://www.w3.org/1999/02/22-rdf-syntax-ns#"
   xmlns:svg="http://www.w3.org/2000/svg"
   xmlns="http://www.w3.org/2000/svg"
   xmlns:sodipodi="http://sodipodi.sourceforge.net/DTD/sodipodi-0.dtd"
   xmlns:inkscape="http://www.inkscape.org/namespaces/inkscape"
   fill="#419236"
   height="48"
   version="1.1"
   viewBox="0 0 48 48"
   width="48"
   id="svg10"
   sodipodi:docname="system-file-manager-linux-mint-color-earth.svg"
   inkscape:version="0.92.3 (2405546, 2018-03-11)">
  <metadata
     id="metadata16">
    <rdf:RDF>
      <cc:Work
         rdf:about="">
        <dc:format>image/svg+xml</dc:format>
        <dc:type
           rdf:resource="http://purl.org/dc/dcmitype/StillImage" />
      </cc:Work>
    </rdf:RDF>
  </metadata>
  <defs
     id="defs14" />
  <sodipodi:namedview
     pagecolor="#ffffff"
     bordercolor="#666666"
     borderopacity="1"
     objecttolerance="10"
     gridtolerance="10"
     guidetolerance="10"
     inkscape:pageopacity="0"
     inkscape:pageshadow="2"
     inkscape:window-width="1328"
     inkscape:window-height="737"
     id="namedview12"
     showgrid="false"
     inkscape:zoom="4.9166667"
     inkscape:cx="2.4366812"
     inkscape:cy="24"
     inkscape:window-x="0"
     inkscape:window-y="0"
     inkscape:window-maximized="1"
     inkscape:current-layer="svg10" />
  <path
     d="m 20,5.8135593 -4,4 V 13.813559 H 8 c -2.21,0 -3.980469,1.79 -3.980469,4 L 4,39.813559 c 0,2.21 1.79,4 4,4 h 32 c 2.21,0 4,-1.79 4,-4 v -22 c 0,-2.21 -1.79,-4 -4,-4 H 32 V 9.8135593 l -4,-4 z m 0,4 h 8 v 3.9999997 h -8 z"
     id="path2"
     style="fill:#c01616;fill-opacity:1"
     inkscape:connector-curvature="0" />
  <path
     d="m33.233429 35.85556c0-2.564268 0-8.613363 0-8.613363 0-2.877623-2.523568-5.210292-5.637251-5.210292l-3.231702 0 0-.006951-8.740524-.038192 0 3.142733c0 0 .713674 0 1.341724 0 .936554 0 1.102006.646519 1.102006 1.541377l.006951 5.555995c0 2.877624 2.523578 5.21029 5.633786 5.21029l7.679096 0c .984466 0 1.845919-.623454 1.845919-1.581605z"
     fill="#c7f994"
     fill-rule="evenodd"
     id="path4"
     style="fill:#c01616;fill-opacity:1" />
  <path
     d="m25.506437 25.303456c-.700771 0-1.323426.260173-1.823719.765554-.500043.505111-.762596 1.135703-.762594 1.847347l0 3.597207 1.631595 0 0-3.597207c0-.272763.089001-.486043.283753-.682774.195393-.19736.402303-.286706.670965-.286706.274292 0 .478098.088896.673918.286706.194754.196731.283756.410011.283756.682774l0 3.597207 1.631593 0 0-3.597207c0-.272763.089002-.486043.283758-.682774.195818-.197809.399624-.286706.673921-.286706.268664 0 .475568.089346.670958.286706.194754.196731.283756.410011.283756.682774l.008867 4.203155c0 .896612-.853858 1.652273-1.950819 1.652273l-5.261297-.020686c-.846524 0-1.569524-.82396-1.569524-1.882839l0-7.915136-1.542919 0 0 8.219577c0 .872095.319121 1.636858.93994 2.255275.530629.523762 1.168784.863277 1.88579.939956l5.858369-.000014c.900225 0 1.691114-.334731 2.329159-.984301l.002961 0c .542651-.557528.859887-1.225569.936983-1.9774l-.005905-4.489861c0-.711644-.262544-1.342237-.762594-1.847347-.500287-.505381-1.122948-.765554-1.823715-.765554-.687862 0-1.289743.255785-1.77643.724164-.485264-.467607-1.082938-.724164-1.770516-.724164z"
     fill="#4c7523"
     fill-rule="evenodd"
     overflow="visible"
     id="path6"
     style="fill:#ffffff;fill-opacity:1" />
  <path
     d="m 23.39162,38.345933 c -3.708742,0 -6.927207,-2.811577 -6.927207,-6.516995 l -0.0033,-4.499177 v -1.147287 h -2.35131 v -5.716543 l 9.915534,0.0467 3.101735,0.0067 c 3.712075,0 6.927205,2.80823 6.927205,6.516976 V 38.345932 H 23.391626 v 0 0 z m 9.151772,-3.033812 c 0,-2.463786 0,-8.275845 0,-8.275845 0,-2.764861 -2.42468,-5.006124 -5.416353,-5.006124 h -3.105067 v -0.0067 l -8.39802,-0.03669 v 2.684837 c 0,0 0.337305,0 0.940745,0 0.638687,0 1.407224,0.600201 1.407224,1.480977 l 0.0067,5.67303 c 0,2.764863 2.424692,5.006122 5.413026,5.006122 h 7.378186 c 0.945888,0 1.773586,-0.599024 1.773587,-1.51963 z"
     overflow="visible"
     id="path8"
     style="overflow:visible;fill:#ffffff;fill-opacity:1;fill-rule:evenodd"
     inkscape:connector-curvature="0" />
</svg>

<?xml version="1.0" encoding="UTF-8" standalone="no"?>
<svg
   xmlns:dc="http://purl.org/dc/elements/1.1/"
   xmlns:cc="http://creativecommons.org/ns#"
   xmlns:rdf="http://www.w3.org/1999/02/22-rdf-syntax-ns#"
   xmlns:svg="http://www.w3.org/2000/svg"
   xmlns="http://www.w3.org/2000/svg"
   xmlns:sodipodi="http://sodipodi.sourceforge.net/DTD/sodipodi-0.dtd"
   xmlns:inkscape="http://www.inkscape.org/namespaces/inkscape"
   fill="#419236"
   height="48"
   version="1.1"
   viewBox="0 0 48 48"
   width="48"
   id="svg10"
   sodipodi:docname="system-file-manager-linux-mint-color-earth.svg"
   inkscape:version="0.92.3 (2405546, 2018-03-11)">
  <metadata
     id="metadata16">
    <rdf:RDF>
      <cc:Work
         rdf:about="">
        <dc:format>image/svg+xml</dc:format>
        <dc:type
           rdf:resource="http://purl.org/dc/dcmitype/StillImage" />
      </cc:Work>
    </rdf:RDF>
  </metadata>
  <defs
     id="defs14" />
  <sodipodi:namedview
     pagecolor="#ffffff"
     bordercolor="#666666"
     borderopacity="1"
     objecttolerance="10"
     gridtolerance="10"
     guidetolerance="10"
     inkscape:pageopacity="0"
     inkscape:pageshadow="2"
     inkscape:window-width="1328"
     inkscape:window-height="737"
     id="namedview12"
     showgrid="false"
     inkscape:zoom="4.9166667"
     inkscape:cx="-35.088743"
     inkscape:cy="24"
     inkscape:window-x="38"
     inkscape:window-y="0"
     inkscape:window-maximized="1"
     inkscape:current-layer="svg10" />
  <path
     style="fill:#c01616;fill-opacity:1"
     d="M 20 5.8144531 L 16 9.8144531 L 16 13.814453 L 8 13.814453 C 5.79 13.814453 4.0195313 15.604453 4.0195312 17.814453 L 4 39.814453 C 4 42.024453 5.79 43.814453 8 43.814453 L 40 43.814453 C 42.21 43.814453 44 42.024453 44 39.814453 L 44 17.814453 C 44 15.604453 42.21 13.814453 40 13.814453 L 32 13.814453 L 32 9.8144531 L 28 5.8144531 L 20 5.8144531 z M 20 9.8144531 L 28 9.8144531 L 28 13.814453 L 20 13.814453 L 20 9.8144531 z M 14.109375 20.466797 L 24.025391 20.511719 L 27.126953 20.519531 C 30.839028 20.519531 34.054688 23.328363 34.054688 27.037109 L 34.054688 38.345703 L 23.392578 38.345703 C 19.683836 38.345703 16.464844 35.533543 16.464844 31.828125 L 16.460938 27.330078 L 16.460938 26.181641 L 14.109375 26.181641 L 14.109375 20.466797 z M 15.623047 21.986328 L 15.623047 24.671875 L 16.564453 24.671875 C 17.20314 24.671875 17.972656 25.271568 17.972656 26.152344 L 17.978516 31.826172 C 17.978516 34.591035 20.404244 36.832031 23.392578 36.832031 L 30.769531 36.832031 C 31.715419 36.832031 32.542968 36.233106 32.542969 35.3125 L 32.542969 27.037109 C 32.542969 24.272248 30.118626 22.029297 27.126953 22.029297 L 24.021484 22.029297 L 24.021484 22.023438 L 15.623047 21.986328 z "
     id="path2" />
  <path
     d="m33.233429 35.85556c0-2.564268 0-8.613363 0-8.613363 0-2.877623-2.523568-5.210292-5.637251-5.210292l-3.231702 0 0-.006951-8.740524-.038192 0 3.142733c0 0 .713674 0 1.341724 0 .936554 0 1.102006.646519 1.102006 1.541377l.006951 5.555995c0 2.877624 2.523578 5.21029 5.633786 5.21029l7.679096 0c .984466 0 1.845919-.623454 1.845919-1.581605z"
     fill="#c7f994"
     fill-rule="evenodd"
     id="path4"
     style="fill:#c01616;fill-opacity:1" />
  <path
     d="m25.506437 25.303456c-.700771 0-1.323426.260173-1.823719.765554-.500043.505111-.762596 1.135703-.762594 1.847347l0 3.597207 1.631595 0 0-3.597207c0-.272763.089001-.486043.283753-.682774.195393-.19736.402303-.286706.670965-.286706.274292 0 .478098.088896.673918.286706.194754.196731.283756.410011.283756.682774l0 3.597207 1.631593 0 0-3.597207c0-.272763.089002-.486043.283758-.682774.195818-.197809.399624-.286706.673921-.286706.268664 0 .475568.089346.670958.286706.194754.196731.283756.410011.283756.682774l.008867 4.203155c0 .896612-.853858 1.652273-1.950819 1.652273l-5.261297-.020686c-.846524 0-1.569524-.82396-1.569524-1.882839l0-7.915136-1.542919 0 0 8.219577c0 .872095.319121 1.636858.93994 2.255275.530629.523762 1.168784.863277 1.88579.939956l5.858369-.000014c.900225 0 1.691114-.334731 2.329159-.984301l.002961 0c .542651-.557528.859887-1.225569.936983-1.9774l-.005905-4.489861c0-.711644-.262544-1.342237-.762594-1.847347-.500287-.505381-1.122948-.765554-1.823715-.765554-.687862 0-1.289743.255785-1.77643.724164-.485264-.467607-1.082938-.724164-1.770516-.724164z"
     fill="#4c7523"
     fill-rule="evenodd"
     overflow="visible"
     id="path6"
     style="fill:#ffffff;fill-opacity:1" />
</svg>
